icons/align-vertical-justify-start.svg

<svg width="24" height="24" viewBox="0 0 24 24" fill="none" xmlns="http://www.w3.org/2000/svg">
<path d="M4 19C4 17.3431 5.07452 16 6.4 16L17.6 16C18.9255 16 20 17.3431 20 19C20 20.6569 18.9255 22 17.6 22H6.4C5.07452 22 4 20.6569 4 19Z" stroke="black" stroke-width="2" stroke-linecap="round" stroke-linejoin="round"/>
<path d="M22 2L2 2" stroke="black" stroke-width="2" stroke-linecap="round" stroke-linejoin="round"/>
<path d="M8.80002 12C7.47454 12 6.40002 10.6569 6.40002 9C6.40002 7.34315 7.47454 6 8.80002 6L15.2 6C16.5255 6 17.6 7.34315 17.6 9C17.6 10.6569 16.5255 12 15.2 12H8.80002Z" stroke="black" stroke-width="2" stroke-linecap="round" stroke-linejoin="round"/>
</svg>

<svg xmlns="http://www.w3.org/2000/svg" width="24" height="24" viewBox="0 0 24 24" fill="none" stroke="currentColor" stroke-width="2" stroke-linecap="round" stroke-linejoin="round">
<path d="M4 19c0-1.657 1.075-3 2.4-3h11.2c1.325 0 2.4 1.343 2.4 3s-1.075 3-2.4 3H6.4C5.075 22 4 20.657 4 19M22 2H2m6.8 10c-1.325 0-2.4-1.343-2.4-3s1.075-3 2.4-3h6.4c1.326 0 2.4 1.343 2.4 3s-1.075 3-2.4 3z"/>
</svg>
